flaticon/medical/tooth.svg

<svg xmlns="http://www.w3.org/2000/svg" width="32" height="32" viewBox="0 0 24 24">
    <path d="M 5.890625 2.503906 C 3.675781 3.289062 3.03125 6.0625 3.371094 8.304688 C 3.402344 8.515625 3.582031 8.664062 3.789062 8.664062 C 3.808594 8.664062 3.828125 8.664062 3.851562 8.660156 C 4.082031 8.625 4.242188 8.410156 4.207031 8.179688 C 3.917969 6.265625 4.410156 3.925781 6.171875 3.300781 C 6.390625 3.222656 6.507812 2.980469 6.429688 2.761719 C 6.351562 2.542969 6.109375 2.425781 5.890625 2.503906 Z M 5.890625 2.503906"/>
    <path d="M 22.828125 8.34375 C 22.832031 8.238281 22.835938 8.136719 22.839844 8.03125 C 22.859375 6.855469 22.753906 5.699219 22.460938 4.59375 C 22.375 4.269531 22.246094 3.945312 22.078125 3.628906 C 21.578125 2.683594 20.730469 1.800781 19.613281 1.082031 C 17.707031 -0.144531 15.046875 -0.347656 12.835938 0.566406 L 12.753906 0.601562 C 12.714844 0.621094 12.675781 0.636719 12.636719 0.652344 C 12.539062 0.683594 12.449219 0.71875 12.375 0.746094 C 12.355469 0.753906 12.339844 0.757812 12.320312 0.765625 C 12.265625 0.785156 12.210938 0.808594 12.167969 0.824219 C 12.160156 0.828125 12.15625 0.828125 12.152344 0.832031 C 11.777344 0.976562 11.765625 0.972656 11.132812 0.789062 C 9.761719 0.382812 7.167969 -0.191406 5.183594 0.515625 C 2.761719 1.371094 0.617188 4.210938 1.28125 8.621094 C 1.359375 9.140625 1.4375 9.667969 1.515625 10.195312 C 2.066406 14.003906 2.640625 17.941406 4.113281 21.496094 L 4.164062 21.617188 C 4.53125 22.507812 5.140625 24 6.207031 24 L 6.292969 24 L 6.371094 23.96875 C 7.347656 23.554688 7.714844 22.613281 7.980469 21.929688 C 8.164062 21.46875 8.324219 20.996094 8.476562 20.539062 C 8.683594 19.941406 8.882812 19.359375 9.117188 18.800781 C 9.65625 19.894531 10.75 21.675781 12.199219 21.675781 C 12.367188 21.675781 12.542969 21.648438 12.722656 21.597656 C 13.671875 21.3125 14.152344 20.332031 14.5 19.613281 L 14.527344 19.554688 C 14.601562 19.40625 14.695312 19.230469 14.796875 19.039062 C 14.894531 18.851562 15.007812 18.640625 15.113281 18.425781 C 15.21875 18.765625 15.3125 19.117188 15.402344 19.460938 C 15.503906 19.847656 15.605469 20.246094 15.726562 20.621094 C 16.238281 22.195312 16.902344 23.820312 17.953125 23.925781 C 17.988281 23.929688 18.027344 23.933594 18.0625 23.933594 C 18.082031 23.933594 18.097656 23.929688 18.117188 23.929688 C 18.144531 23.925781 18.171875 23.925781 18.199219 23.921875 C 18.238281 23.914062 18.277344 23.90625 18.3125 23.898438 C 18.339844 23.890625 18.367188 23.882812 18.394531 23.875 C 18.429688 23.863281 18.46875 23.847656 18.503906 23.832031 C 18.53125 23.816406 18.558594 23.804688 18.585938 23.792969 C 18.621094 23.773438 18.65625 23.75 18.691406 23.726562 C 18.71875 23.707031 18.746094 23.691406 18.773438 23.671875 C 18.808594 23.644531 18.839844 23.613281 18.875 23.582031 C 18.902344 23.558594 18.929688 23.539062 18.953125 23.511719 C 18.988281 23.476562 19.023438 23.4375 19.054688 23.398438 C 19.082031 23.371094 19.105469 23.347656 19.128906 23.316406 C 19.167969 23.269531 19.203125 23.21875 19.242188 23.167969 C 19.261719 23.140625 19.28125 23.113281 19.300781 23.085938 C 19.359375 23 19.414062 22.914062 19.46875 22.816406 C 20.296875 21.367188 20.652344 19.75 20.992188 18.1875 L 21.113281 17.640625 C 21.25 17.035156 21.402344 16.414062 21.554688 15.777344 C 21.613281 15.527344 21.675781 15.273438 21.734375 15.019531 C 22.214844 13 22.691406 10.855469 22.8125 8.757812 C 22.820312 8.621094 22.820312 8.480469 22.828125 8.34375 Z M 7.679688 20.265625 C 7.527344 20.714844 7.367188 21.175781 7.195312 21.621094 C 6.925781 22.316406 6.671875 22.871094 6.132812 23.144531 C 5.65625 23.027344 5.144531 21.78125 4.945312 21.296875 L 4.894531 21.171875 C 3.460938 17.714844 2.894531 13.832031 2.351562 10.074219 C 2.273438 9.542969 2.195312 9.015625 2.117188 8.492188 C 1.691406 5.660156 2.558594 2.339844 5.464844 1.308594 C 6.039062 1.105469 6.691406 1.03125 7.34375 1.03125 C 8.761719 1.03125 10.191406 1.390625 10.894531 1.597656 C 11.039062 1.640625 11.15625 1.671875 11.265625 1.703125 L 9.800781 3.984375 L 12.292969 6.058594 L 9.757812 9.015625 L 12.265625 11.105469 L 9.761719 13.613281 L 11.230469 15.085938 C 10.496094 15.390625 9.800781 15.984375 9.207031 16.851562 C 8.476562 17.921875 8.070312 19.113281 7.679688 20.265625 Z M 14.050781 18.644531 C 13.945312 18.84375 13.84375 19.027344 13.769531 19.1875 L 13.738281 19.242188 C 13.445312 19.851562 13.074219 20.609375 12.480469 20.785156 C 11.078125 21.207031 9.78125 18.25 9.640625 17.914062 L 9.601562 17.824219 C 9.644531 17.746094 9.6875 17.671875 9.730469 17.601562 C 9.789062 17.507812 9.84375 17.417969 9.90625 17.328125 C 9.9375 17.28125 9.972656 17.230469 10.011719 17.179688 C 10.382812 16.671875 11.070312 15.917969 11.953125 15.726562 L 12.09375 15.707031 C 12.328125 15.671875 12.5625 15.679688 12.792969 15.730469 C 12.800781 15.730469 12.8125 15.730469 12.820312 15.734375 C 12.925781 15.757812 13.03125 15.792969 13.132812 15.832031 C 13.148438 15.835938 13.160156 15.839844 13.175781 15.847656 C 13.289062 15.894531 13.40625 15.949219 13.519531 16.019531 C 13.65625 16.097656 13.777344 16.191406 13.894531 16.289062 C 13.9375 16.328125 13.972656 16.371094 14.015625 16.410156 C 14.082031 16.472656 14.144531 16.539062 14.207031 16.609375 C 14.261719 16.675781 14.3125 16.746094 14.367188 16.816406 C 14.398438 16.863281 14.433594 16.910156 14.464844 16.960938 C 14.535156 17.066406 14.597656 17.175781 14.660156 17.296875 C 14.667969 17.308594 14.675781 17.320312 14.679688 17.335938 C 14.515625 17.765625 14.269531 18.230469 14.050781 18.644531 Z M 20.167969 18.007812 C 19.839844 19.507812 19.5 21.058594 18.734375 22.398438 C 18.476562 22.847656 18.214844 23.097656 18.039062 23.085938 C 17.84375 23.066406 17.3125 22.761719 16.53125 20.359375 C 16.417969 20.011719 16.320312 19.640625 16.21875 19.25 C 16.089844 18.75 15.949219 18.226562 15.765625 17.71875 C 15.480469 16.933594 15.085938 16.1875 14.425781 15.632812 C 14.421875 15.628906 14.417969 15.628906 14.417969 15.625 C 14.273438 15.503906 14.121094 15.394531 13.953125 15.292969 C 13.839844 15.226562 13.722656 15.167969 13.609375 15.117188 C 13.5625 15.09375 13.515625 15.078125 13.46875 15.058594 C 13.402344 15.03125 13.332031 15.007812 13.265625 14.984375 C 13.207031 14.964844 13.148438 14.949219 13.089844 14.933594 C 13.035156 14.921875 12.980469 14.910156 12.921875 14.898438 C 12.859375 14.886719 12.792969 14.871094 12.730469 14.863281 C 12.675781 14.859375 12.621094 14.855469 12.566406 14.851562 C 12.507812 14.847656 12.449219 14.839844 12.390625 14.839844 C 12.320312 14.839844 12.253906 14.84375 12.1875 14.847656 L 10.953125 13.613281 L 13.515625 11.050781 L 10.957031 8.917969 L 13.488281 5.960938 L 10.914062 3.8125 L 12.28125 1.683594 C 12.335938 1.664062 12.398438 1.640625 12.472656 1.613281 C 12.511719 1.597656 12.5625 1.578125 12.609375 1.558594 C 12.695312 1.527344 12.792969 1.492188 12.910156 1.449219 C 12.972656 1.429688 13.027344 1.40625 13.085938 1.378906 L 13.15625 1.347656 C 14.890625 0.632812 16.929688 0.6875 18.542969 1.457031 C 18.753906 1.558594 18.960938 1.667969 19.15625 1.792969 C 20.46875 2.636719 21.351562 3.710938 21.644531 4.8125 C 21.917969 5.851562 22.011719 6.953125 21.988281 8.082031 C 21.9375 10.5625 21.308594 13.183594 20.730469 15.582031 C 20.578125 16.222656 20.425781 16.847656 20.289062 17.457031 Z M 20.167969 18.007812"/>
</svg>

<svg xmlns="http://www.w3.org/2000/svg" width="32" height="32" viewBox="0 0 24 24">
    <path d="M5.89 2.504c-2.214.785-2.859 3.558-2.519 5.8.031.212.211.36.418.36.02 0 .04 0 .063-.004.23-.035.39-.25.355-.48-.289-1.914.203-4.254 1.965-4.88a.424.424 0 0 0 .258-.538.424.424 0 0 0-.54-.258zm0 0"/>
    <path d="M22.828 8.344l.012-.313c.02-1.176-.086-2.332-.38-3.437a4.552 4.552 0 0 0-.382-.965c-.5-.945-1.348-1.828-2.465-2.547-1.906-1.227-4.566-1.43-6.777-.516l-.082.036c-.04.02-.078.035-.117.05-.098.032-.188.067-.262.094l-.055.02-.152.058c-.008.004-.012.004-.016.008-.375.145-.386.14-1.02-.043C9.763.383 7.169-.19 5.185.516 2.762 1.37.617 4.21 1.28 8.62l.235 1.574c.55 3.809 1.125 7.746 2.597 11.301l.051.121c.367.89.977 2.383 2.043 2.383h.086l.078-.031c.977-.414 1.344-1.356 1.61-2.04.183-.46.343-.933.496-1.39.207-.598.406-1.18.64-1.738.54 1.094 1.633 2.875 3.082 2.875.168 0 .344-.028.524-.078.949-.285 1.43-1.266 1.777-1.985l.027-.058c.075-.149.168-.325.27-.516.098-.187.21-.398.316-.613.106.34.2.691.29 1.035.1.387.202.785.324 1.16.511 1.574 1.175 3.2 2.226 3.305.035.004.074.008.11.008.019 0 .035-.004.054-.004.028-.004.055-.004.082-.008l.113-.024.083-.023c.035-.012.074-.027.109-.043.027-.016.055-.027.082-.039.035-.02.07-.043.105-.066.028-.02.055-.036.082-.055.036-.027.067-.059.102-.09.027-.023.055-.043.078-.07a1.4 1.4 0 0 0 .102-.114c.027-.027.05-.05.074-.082.039-.046.074-.097.113-.148l.059-.082c.058-.086.113-.172.168-.27.828-1.449 1.183-3.066 1.523-4.628l.121-.547c.137-.606.29-1.227.442-1.864.058-.25.12-.504.18-.757.48-2.02.956-4.165 1.078-6.262.007-.137.007-.278.015-.414zM7.68 20.266c-.153.449-.313.91-.485 1.355-.27.695-.523 1.25-1.062 1.524-.477-.118-.988-1.364-1.188-1.848l-.05-.125c-1.434-3.457-2-7.34-2.543-11.098l-.235-1.582C1.691 5.66 2.56 2.34 5.465 1.31c.574-.204 1.226-.278 1.879-.278 1.418 0 2.847.36 3.55.567.145.043.262.074.372.105L9.8 3.984l2.492 2.075-2.535 2.957 2.508 2.09-2.504 2.507 1.468 1.473c-.734.305-1.43.898-2.023 1.766-.73 1.07-1.137 2.261-1.527 3.414zm6.37-1.621c-.105.199-.206.382-.28.543l-.032.054c-.293.61-.664 1.367-1.258 1.543-1.402.422-2.699-2.535-2.84-2.87l-.038-.09c.043-.079.085-.153.128-.223.06-.094.114-.184.176-.274a2.69 2.69 0 0 1 .106-.148c.37-.508 1.058-1.262 1.941-1.453l.14-.02c.235-.035.47-.027.7.023a2.225 2.225 0 0 1 .383.117 2.613 2.613 0 0 1 .719.441c.043.04.078.083.12.122.067.063.13.13.192.2.055.066.105.136.16.206.031.047.067.094.098.145a3.447 3.447 0 0 1 .215.375c-.164.43-.41.894-.63 1.309zm6.118-.637c-.328 1.5-.668 3.05-1.434 4.39-.257.45-.52.7-.695.688-.195-.02-.727-.324-1.508-2.727-.113-.347-.21-.718-.312-1.109-.13-.5-.27-1.023-.453-1.531-.286-.785-.68-1.532-1.34-2.086-.004-.004-.008-.004-.008-.008a3.69 3.69 0 0 0-.465-.332 3.573 3.573 0 0 0-.344-.176c-.046-.023-.093-.039-.14-.058-.067-.028-.137-.051-.203-.075a2.974 2.974 0 0 0-.176-.05l-.168-.036c-.063-.011-.129-.027-.192-.035l-.164-.011c-.058-.004-.117-.012-.175-.012-.07 0-.137.004-.204.008l-1.234-1.235 2.563-2.562-2.559-2.133 2.531-2.957-2.574-2.149 1.367-2.128.192-.07.136-.055.301-.11c.063-.02.117-.043.176-.07l.07-.031c1.735-.715 3.774-.66 5.387.109.21.102.418.211.613.336 1.313.844 2.196 1.918 2.489 3.02.273 1.039.367 2.14.343 3.269-.05 2.48-.68 5.102-1.258 7.5-.152.64-.304 1.266-.44 1.875zm0 0"/>
</svg>
